X:42
M:6/8
L:1/8
K:D
|: f>ag f>ed | c>ed c>BA | B>dc B>AG | F>AG F>ED | f>ag f>ed | c>ed c>BA | Bgf edc | d3 D3 :|

